X:1
T:Title
%%score { ( 1 3 ) | ( 2 4 ) }
L:1/8
Q:1/4=116
M:4/4
K:F
V:1 treble nm="Grand Piano"
V:3 treble 
V:2 bass 
V:4 bass 
V:1
 F2 C2 F2 C2 | F2 C2 F4 | G2 C2 G2 C2 | G2 C2 G4 | G2 A2 B2 A2 | G2 F2 [=B,E]2 [B,D]2 | %6
w: E.~A.~Hoffman * * *||||||
 C2 G2 G2 G2 | C6 z2 | F2 C2 F2 C2 | F2 C2 F4 | G2 C2 G2 C2 | G2 C2 G4 | G2 A2 B2 A2 | %13
w: |||||||
 G2 F2 [G,E]2 D2 | CDEF [EG]2 [Ec]2 | F6 z2 | A4 A3 A | B2 A2 G2 F2 | E2 [EG]2 [EG]4 | F2 A2 A4 | %20
w: |||||||
 A4 A3 A | B2 A2 G2 F2 | G2 G2 G2 G2 | [Ec]6 z2 | c4 c4 | c4 c4 | c4 f4 | c6 z2 | d4 B4 | c4 f4 | %30
w: ||||||||||
 e4 A4 | A4 z4 | c4 c4 | c4 c4 | c4 f4 | c6 z2 | d4 B4 | c4 f4 | c4 z4 | [A,F]6 z2 |] %40
w: ||||||||||
V:2
 [F,A,C]2 [F,A,]2 [F,A,C]2 [F,A,]2 | [F,A,C]2 [F,A,]2 [F,A,C]4 | %2
 [E,B,C]2 [E,B,]2 [E,B,C]2 [E,B,]2 | [E,B,C]2 [E,B,]2 [E,B,C]4 | %4
 [C,B,C]2 [C,A,C]2 [C,G,C]2 [F,C]2 | [D,G,=B,]2 [D,G,B,]2 [G,,G,]2 [G,,F,]2 | %6
 [C,E,]2 [C,E,C]2 [D,F,=B,]2 [E,G,C]2 | [G,B,]6 z2 | [F,A,C]2 [F,A,]2 [F,A,C]2 [F,A,]2 | %9
 [F,A,C]2 [F,A,]2 [F,A,C]4 | [E,B,C]2 [E,B,]2 [E,B,C]2 [E,B,]2 | [E,B,C]2 [E,B,]2 [E,B,C]4 | %12
 [C,B,C]2 [C,A,C]2 [C,G,C]2 [F,C]2 | [D,G,=B,]2 [D,G,B,]2 z2 F,2 | %14
 [C,E,][C,F,C][C,G,C][C,A,C] [C,B,]2 [C,B,]2 | [F,A,]6 z2 | [F,CF]4 [F,CF]3 [F,CF] | %17
 [F,DF]2 [F,CF]2 [F,B,C]2 [F,A,C]2 | [C,G,C]2 [C,B,]2 [C,B,]4 | [F,A,]2 [F,CF]2 [F,CF]4 | %20
 [F,CF]4 [F,CF]3 [F,CF] | [F,DF]2 [F,CF]2 [F,B,C]2 [F,A,C]2 | %22
 [D,G,B,]2 [D,G,B,]2[K:treble] [G,=B,F]2 [G,B,F]2 | C4 z4 | %24
 [F,A,F]2 [F,A,]2[K:treble] [CA]2 [A,C]2 | [F,A,F]2 [F,A,]2[K:treble] [CA]2 [A,C]2 | %26
 [F,A,F]2 [F,A,]2[K:treble] [CA]2 [A,C]2 | [F,A,F]6 z2 | [B,F]2 B,2 [B,DF]2 [B,D]2 | %29
 [A,CF]2 [A,C]2 [A,CF]2 [A,C]2 | [A,^CG]2 [A,C]2 [A,CG]2[K:bass] [A,C]2 | [D,D]2 [D,A,]2 [C,B,]4 | %32
 [F,A,F]2 [F,A,]2[K:treble] [CA]2 [A,C]2 | [F,A,F]2 [F,A,]2[K:treble] [CA]2 [A,C]2 | %34
 [F,A,F]2 [F,A,]2[K:treble] [CA]2 [A,C]2 | [F,A,F]6 z2 | [B,F]2 B,2 [B,DF]2 [B,D]2 | %37
 [A,CF]2[K:bass] [A,C]2 [D,A,]2 D,2 | C,2 C,2 z2 B,2 | F,6 z2 |] %40
V:3
 x8 | x8 | x8 | x8 | x8 | x8 | x8 | x8 | x8 | x8 | x8 | x8 | x8 | z4 =B,4 | x8 | x8 | x8 | x8 | %18
 x8 | x8 | x8 | x8 | x8 | z4 B,2 z2 | z2 F2 z2 F2 | z2 F2 z2 F2 | z2 F2 z2 F2 | x8 | z2 F2 z2 F2 | %29
 z2 F2 z2 F2 | z2 G2 z2 G2 | F2 F2 [Ec]4 | z2 F2 z2 F2 | z2 F2 z2 F2 | z2 F2 z2 F2 | x8 | %36
 z2 F2 z2 F2 | z2 F2 F2 [B,G]2 | [CA]2 [CA]2 [CGB]2 [EG]2 | x8 |] %40
V:4
 x8 | x8 | x8 | x8 | x8 | x8 | x8 | x8 | x8 | x8 | x8 | x8 | x8 | z4 G,,4 | x8 | x8 | x8 | x8 | %18
 x8 | x8 | x8 | x8 | x4[K:treble] x4 | C,6 z2 | x4[K:treble] x4 | x4[K:treble] x4 | %26
 x4[K:treble] x4 | x8 | x8 | x8 | x6[K:bass] x2 | x8 | x4[K:treble] x4 | x4[K:treble] x4 | %34
 x4[K:treble] x4 | x8 | x8 | x2[K:bass] x6 | z4 C,4 | x8 |] %40

